X:1
T:Khvalitye imya Gospodie
T:Сергeй Рахманинов, 1910
T:Attributed to John Chrysostom, c. 349-407 AD
T:Благослови, душе моя, Господа
T:Литургиа Святого Иоанна Златоуста , Op. 31, No. 2
T:Public Domain
T:Public Domain
T:Public Domain
T:Public Domain
T:Public Domain
T:Public Domain
T:Public Domain
T:Public Domain
C:Sergei Rakhmanninov
Z:Public Domain
%%score [ ( 1 2 ) 3 ( 4 5 ) ( 6 7 ) ]
L:1/8
Q:1/4=50
M:4/4
K:Bb
V:1 treble nm="Сопрано" snm="С."
V:2 treble 
V:3 treble nm="Альт" snm="А."
V:4 treble-8 nm="Тенор" snm="Т."
V:5 treble-8 
V:6 bass nm="Бас" snm="Б."
V:7 bass 
V:1
!pp!"^Довольно медленно\nFairly slow""^Бла-го–сло–ви,                                                ду         –         ше   мо –я,                         Го   –   спо – да,""^Bla– go–slo – vi,                                                du          –        she  mo–ya,                       Go   –   spo – da," (3GGG | %1
 G6 F2 |!<(! G2 A2!>(! B4!<)!!>)! |!pp! G3 G G4- | %4
 G2"^и          вся     вну         –        трен      –       ия    –     я                                     мо  – я,""^i          vsya    vnu        –         tren        –      iya   –    ya                                   mo – ya," G4 G2 | %5
 G4 G2 F2 |!<(! (G2 A2!>(! B3) G!<)!!>)! | G8 | %8
"^усиливая звучность\nstronger""^и       –       мя           свя          –          то               –                 е""^i        –      mya        svya        –           to               –                 ye" (G2 A2) B2 c2 | %9
 [Ac]4!<(! [Ac]3"^Е   – го.""^Ye  – vo." [Ad]!<)! |!f! (d8- |!>(! d4 c4!>)! | [GB]2 [Ac]4 [Bd]2) | %13
!p!"^и                       –                   мя                        свя   –  то     –      е                                               Е  –""^i                        –                 mya                      svya  –  to      –     ye                                            Ye –" c4 c3 c | %14
 B2 c4 c2 |"^– го.""^– vo."!>(! B8-!>)! | B2!pp!"^Бла–го-сло-ви.\n""^Bla– go–slo–vi." (3AAA A4- | %17
 (A4 G4-) | (G4 F4) | %19
"^Бла             –                го –сло  –   ви.\n""^Bla              –                go –slo    –   vi." =E4 _E2 E2 | %20
 D2 z2 z4 | z8 | z8 | %23
 z4 z2!pp!"^Бла-го-сло     –     ви,                        ду–ше        мо– я,""^Bla–go–slo       –     vi,                        du–she       mo-ya," (3ddd | %24
[M:12/8] !tenuto!d3- d2 c d2 B c3 | %25
"^Го–спо–да,                        и    вся      вну-трен-ия-я   мо–я,                    и   –  мя   свя      –     то        –       е              Е  –""^Go–spo–da,                        i    vsya   vnu–tren-iya-ya  mo-ya,                  i   – mya  svya    –      to        –      ye           Ye –" [Bd]2 [Bd] [Bd]3- [Bd]2 B c3 | %26
 !tenuto!ddd d2 A B6 |[M:6/8] c3 c2 c |[M:12/8]!<(! (d3 =e3)!>(! f3 d3!<)!!>)! | %29
!pp!"^–го.""^–vo." d12- | d12- | %31
[M:6/8] d3"^Немного оживленние\nMore excited"[Q:1/2=40]!mf!"^Сла-ва От – цу    и     Сы– ну             и    Свя–то  –  му""^Sla –va Ot – tsu     i     Sui– nu              i    Svya–to  – mu" [Bd][Bd][Bd] | %32
 [Bd]2 [Bd] [Bd]2 [Bd]- | [Bd]!<(![Bd][Bd] [Bd]2 [Bd]!<)! |!<(! [Bd]2 [Bd] [Bd][Bd][Bd]!<)! | %35
!f! d3- d2!>(! d!>)! | d2 d- ddd | d2 d ddd | ddd d2 d- | %39
"^замедляя\nslowing" d[Q:1/2=35]dd!<(! [Bd][Bd][Bd]!<)! | (!tenuto!d6- |!>(! d3 D3!>)! | %42
[M:12/8]"^Прежний темп\nFirst tempo"[Q:1/2=40] G6-) G3!ppp!"^А       –      минь.""^A       –      min'." G3 | %43
 G12- | G12 |[M:6/8]!p! !tenuto!B3 AAB | !tenuto!B3 !fermata!B3 | !tenuto!B3 AAB | %48
 !tenuto!B3 !fermata!B3 |[M:4/4]!<(! z2 G2!>(! B4!<)!!>)! | G3 G G4 | z4 G4 | F8 |] %53
V:2
 x2 | x8 | x8 | x8 | x8 | x8 | x8 | x8 | x8 | x8 | A8- | A8 | x8 | x8 | x8 | x8 | x8 | x8 | x8 | %19
 x8 | x8 | x8 | x8 | x8 |[M:12/8] x12 | x12 | x12 |[M:6/8] x6 |[M:12/8] x12 | x12 | x12 | %31
[M:6/8] x6 | x6 | x6 | x6 | x6 | x6 | x6 | x6 | x6 | x6 | x6 |[M:12/8] x12 | x12 | x12 | %45
[M:6/8] x6 | x6 | x6 | x6 |[M:4/4] x8 | x8 | x8 | x8 |] %53
V:3
 z2 | %1
 z2"^Бла-го-сло-ви, ду-ше мо–я,      Го         –         спо–да,              и  вся вну-трен-ия-я мо  –""^Bla–go–slo–vi,  du-she mo-ya,   Go         –         spo–da,             i vsya vnu-tren-iya-ya mo –"!mp! (3DDD (3:2:2D2 D (3DDD | %2
 D4- DD D2- | D2 (3:2:2D2 D (3EDD (3:2:2D2 D | %4
"^–я,                                и    –  мя     свя-то–е    Е – го.                                                                             Бла-го-сло-ви,    ду-ше  мо–я,""^–ya,                              i        mya  svya-to-ye   Ye–vo.                                                                            Bla–go–slo–vi,     du-she mo-ya," D8 | %5
 D2 (3:2:2D2 D (3DDD D2- | D8- | D2 (3DDD (3:2:2D2 D (3DDD | %8
"^Го-спо-да,       и       не   за–бы–вай   всех   воз-да–я–ний  Е– го,                       о –чи – ша-ю–ща–го            вся без-за–""^Go-spo-da,       i        ne   za–bui–vai  vsekh  voz-da-ya–nii   Ye–vo,                      o-chi-sha-yu-shcha-vo       vsya bez-za–" (3:2:2D2 D D2- (3:2:2D2 D (3=EEE | %9
 (3:2:2=E2 (E (3E)EE!f! (3FFF F2- | F6!f! (3:2:2F2 F | (3FFF F2- FFFF | %12
"^–ко – ни–я   Тво-я,              из–ба–вля-ю–ща-го оть ис-тле – ни – я     жи –  вот   Твой,   вен-ча–ю–ща-го   Tя""^–ko – ni–ya  Tvo-ya,       iz-ba-vlya-yu-shcha-vo  ot'   is–tlye – ni – ya    zhi –  vot  Tvoi, ven-cha-yu-shcha-vo Tya" (3:2:2F2 F FF F2- (3FFF | %13
!mf! (3FFF (3FED (3:2:2E2 E EE | %14
 (3:2:2E2 E- EE !tenuto!E/!tenuto!E/!tenuto!E/!tenuto!E/ !tenuto!E2 | %15
"^ми–ло–сти-ю   и  щед–ро     –     та    –   ми,                                             ис – пол –ня–ю–ща–го  во  бла–гих             же –""^mi– lo –sti–yu i shched-ro    –      ta    –   mi,                                             is–pol-nya-yu-shcha-vo  vo  bla–gikh           zhe –" (3EEE (3EEE!>(! D3 D!>)! | %16
 D6!p! (3:2:2D2 D | (3DDD (3DDD D3 D | %18
"^–ла–ни–е   Тво–е,      об–но –  вит-ся      я –  ко     ор  –  ля      ю-ность Тво–я:                    тво-яй ми-ло-сты-ню Го–""^–la –ni–ye  Tvo-ye,    ob–no –   vit –sya   ya – ko    or   –  lya     yu-nost'  Tvo–ya:                 tvo-yai  mi-lo-stui-nyu Go–" (3:2:2D2 D DD D2 (3z DD | %19
 !tenuto!C!tenuto!C!tenuto!C!tenuto!C!>(! !tenuto!C3 C!>)! |!pp! (3B,B,B, B,4 z2 | %21
 z!pp! D D2 (3DDD (3:2:2D2 D | %22
"^–сподь         и судь-бу     всем   о  –  би –дим-ым.""^–spod'           i   sud'–bu   vsyem o  –  bi – dim-uim." D2 (3z DD D2 (3:2:2D2 D | %23
 (3:2:2!tenuto!A2 D D2 z2!pp! (3AAA |[M:12/8] !tenuto!B3- B2 A B2 G A3 | G2 G G3- G2 G A3 | %26
 !tenuto![FA][FA][FA] [FA]2 D G6 |[M:6/8] [FA]3 [=EG]2 [EG] | %28
[M:12/8]!<(! (([DF]3 [CB]3))!>(! [DA]3 [=EG]3!<)!!>)! |!pp! ([FA]3 G3 A3 B3 | A3 G3 F3 G3-) | %31
[M:6/8] G3!mf!"^Сла-ва  От – цу    и     Сы– ну             и   Свя–то  –  му""^Sla –va  Ot – tsu    i      Sui– nu             i   Svya–to  –  mu" GGG | %32
 G2 G G2 G- | G!<(!FF F2 F!<)! | %34
"^Ду – ху, Сла-ва    От – цу                      и        Сы   –  ну               и    Свя – то  –  му   Ду–ху,   и        ны–не   и     при–сно""^Du–khu, Sla–va   Ot  – tsu                      i         Sui   –  nu               i     Svya– to   – mu  Du–khu,  i       nui–nye   i     pri –sno"!<(! =E2 E EEE!<)! | %35
!f! [FA]3- [FA]2!>(! [FA]!>)! | [FB]2 [FB]- [FB][FB][FB] | [FA]2 [FA] [FA][FA][FA] | %38
 [FA][FA][FA] [FA]2 [FA]- | %39
 [FA]"^и     во   ве–ки   ве –  ков.                                                  Бла-го-сло-ви,        ду –  ше  мо -я,     Го    –    спо –да""^i       vo   ve –ki    ve  – kov.                                                   Bla–go–slo–vi,         du – she  mo-ya,   Go   –   spo –da."[FA][FA]!<(! FFF!<)! | %40
 !tenuto![DG]6- |!>(! (([DG]3 (C3))!>)! |[M:12/8] B,3)!pp! DDD D3- D2 D | D2 D D3 D3- D2 D | D12 | %45
[M:6/8]!p!"^Го  –  спо-ди,  по–ми–луй.       Го – спо– ди,   по –ми–луй.                   Те– бе,      Го –спо–ди.                  А  –  минь.""^Go  – spo–di,   po–mi– lui.         Go – spo – di,   po – mi– lui.                    Te –bye,    Go –spo– di.                 A  –   min'." !tenuto!G3 ^FFG | %46
 !tenuto!G3 !fermata!G3 | !tenuto!G3 G^FG | !tenuto!G3 !fermata!G3 | %49
[M:4/4]!<(! z2 B,2!>(! C4!<)!!>)! | B,3 B, B,4 | z4 B,4 | A,8 |] %53
V:4
!pp!"^Бла-го–сло–ви,                                               ду         –          ше   мо –я,                        Го    –   спо – да,""^Bla–go–slo – vi,                                                du         –          she  mo–ya,                      Go   –   spo – da," (3[GB][GB][GB] | %1
 [GB]6 [FB]2 |!<(! [GB]2 [Ac]2!>(! [Bd]4!<)!!>)! |!pp! [GB]3 [GB] [GB]4- | %4
 [GB]2"^и          вся     вну         –         трен      –       ия    –     я                                    мо  – я,""^i          vsya    vnu         –         tren       –       iya    –   ya                                   mo – ya," [GB]4 [GB]2 | %5
 [GB]4 [GB]2 [FB]2 |!<(! ([GB]2 [Ac]2!>(! [Bd]3) [GB]!<)!!>)! | [GB]8 | %8
"^и        –        мя          свя          –         то                –                 е""^i         –       mya       svya         –         to                 –                ye" (([GB]2 [Ac]2)) [Bd]2 [c=e]2 | %9
 [c=e]4!<(! [cf]3"^Е  –  го.""^Ye –  vo." [Ad]!<)! |!f! d8- |!>(! d4 c4!>)! | [GB]2 [Ac]4 [Bd]2 | %13
"^и                      –                    мя                         свя   – то    –       е                                               Е  –""^i                      –                   mya                      svya  – to     –      ye                                             Ye –"!p! [cf]4 [ce]3 [ce] | %14
 [Be]2 [ce]4 [ce]2 | %15
"^– го.                                                                                           Бла–го-сло-ви.\n""^– vo.                                                                                           Bla– go–slo–vi." (e4 d4-) | %16
 d2!pp! (3[Ad][Ad][Ad] [Ad]4- | (([Ad]4 [GB]4-)) | [GB]8 | %19
"^Бла             –                го–сло  –   ви.\n""^Bla               –               go –slo   –    vi." [Gc]4 [Ac]2 [FAc]2 | %20
 [Bd]8- | [Bd]8- | [Bd-]8 | d8 |[M:12/8] z12 | %25
 z2!p! z"^Bla–go–slo– vi.""^T.1" ddd"^Бла-го-сло-ви" d6- | d12- |[M:6/8] d z4 z | %28
[M:12/8] z8 z!pp!"^Бла-го-сло–\n""^Bla–go–slo–""^T.1" ddd | %29
!pp!"^–ви.\n""^– vi.""^Бла         –         го –  сло  –  ви.""^Bla           –        go  –  slo   –   vi." d12- | %30
 d12- |[M:6/8] d3!mf! [Bd][Bd][Bd] | [Bd]2 [Bd] [Bd]2 [Bd]- | [Bd]!<(![Bd][Bd] [Bd]2 [Bd]!<)! | %34
!<(! [Bd]2 [Bd] [Bd][Bd][Bd]!<)! |!f! d3- d2!>(! d!>)! | [Bd]2 [Bd]- [Bd][Bd][Bd] | %37
 [Ad]2 [Ad] [Ad][Ad][Ad] | [Ad][Ad][Ad] [Ad]2 [Ad]- | [Ad][Ad][Ad]!<(! [Fd][Fd][Fd]!<)! | %40
 !tenuto![GB]6- |!>(! (([GB]3 A3!>)! | %42
[M:12/8] [DB]6-)) [DB]3!ppp!"^А      –     минь.""^A      –      min'." [DB]3 | [DB]12- | [DB]12 | %45
[M:6/8]!p! !tenuto!d3 ddd | !tenuto!d3 !fermata!d3 | !tenuto!d3 edd | !tenuto!d3 !fermata!d3 | %49
[M:4/4]!<(! z2 D2!>(! E4!<)!!>)! | D3 D D4 | z4 =e4 | f8 |] %53
V:5
 x2 | x8 | x8 | x8 | x8 | x8 | x8 | x8 | x8 | x8 | A8- | A8 | x8 | x8 | x8 | B8- | B2 x2 x4 | x8 | %18
 x8 | x8 | (F8 | G8-) | (G4 (A4) | F8) |[M:12/8] x12 | z12 | z12 |[M:6/8] z6 |[M:12/8] z12 | %29
 (d3 B3) c3 d3 | (c3 B3 A3 B3- |[M:6/8] B3) x x2 | x6 | x6 | x6 | x6 | x6 | x6 | x6 | x6 | x6 | %41
 x6 |[M:12/8] x12 | x12 | x12 |[M:6/8] x6 | x6 | x6 | x6 |[M:4/4] x8 | x8 | x8 | x8 |] %53
V:6
!pp! (3[G,,D,][G,,D,][G,,D,] | [G,,D,]6 [F,,D,]2 |!<(! [G,,D,]2 [A,,D,]2!>(! [B,,D,]4!<)!!>)! | %3
!pp! [G,,D,]3 [G,,D,] [G,,D,]4- | [G,,D,]2 [G,,D,]4 [G,,D,]2 | [G,,D,]4 [G,,D,]2 [F,,D,]2 | %6
!<(! D,4-!>(! D,3 D,!<)!!>)! | [G,,D,]8 | D,4 D,2 =E,2 | [A,,=E,]4!<(! [A,,F,]3 D,!<)! |!f! D,8- | %11
!>(! D,4 C,4!>)! | B,,2 C,4 D,2 |!p! [A,,F,]4 [C,G,]3 [C,G,] | [G,,E,]2 [C,G,]4 [C,G,]2 | %15
 ([G,,E,]4 [B,,D,]4-) | [B,,D,]2!pp! (3[^F,,D,][F,,D,][F,,D,] [F,,D,]4- | [F,,D,-]4 [G,,D,]4- | %18
 [G,,D,]8 | %19
"^Бла              –                 го –сло  –   ви,                              ду    –    ше               мо  –""^Bla               –                 go –slo   –    vi.                              du     –   she               mo –" [C,,C,]4 [F,,C,]2 [F,,C,]2 | %20
 D,8- | D,8- | %22
"^– я,                                                                    Го          –          спо–да,""^–ya                                                                  Go           –         spo–da," D,8 | %23
 A,,8 |[M:12/8] z12 | z12 | z12 |[M:6/8] z6 |[M:12/8] z12 | %29
 z2 z!pp!"^Бла-го-сло-ви.\n""^Bla–go–slo– vi." D,D,D, D,6- | D,12 | %31
[M:6/8]!f!"^Сла  –  ва          От  – цу                      и        Сы         –       ну""^Sla    –  va          Ot   – tsu                      i        Sui         –       nu" G,3 D,2 G, | %32
 G,3- G,2 F, | B,3 B,3 | %34
"^и      Свя–то  – му          Ду   –   ху,       и       ны        –         не             и        при      –      сно                                                 и          во""^i      Svya–to   – mu         Du   –  khu,     i       nui        –         nye           i         pri        –     sno                                                  i           vo" G,2 G, (2:3:2G,G, | %35
 D3 A,2 A, | B,3 F,2 F, | A,3 D,3- | D,3!<(! D,2 D,!<)! | %39
"^ve         –        ki            ve  – kov.                                                                                         A      –      min'.""^ве         –        ки           ве  – ков.                                                                                        А      –      минь." F,3!<(! B,,2 B,,!<)! | %40
 !tenuto!D,6- |!>(! D,6!>)! |[M:12/8] G,,6- G,,3!ppp! G,,3 | G,,12- | G,,12 | %45
[M:6/8]!p! !tenuto!G,3 D,D,G, | !tenuto!G,3 !fermata!G,3 | !tenuto!G,3 C,D,G, | %48
 !tenuto!G,3"^__________________________________________________\nEdited by B. C. Johnston, 2018\nMeasure 26, \nTenor\n: dot added to last note.\nTransliterations added." !fermata!G,3 | %49
[M:4/4]!<(! z2 G,,2!>(! G,,4!<)!!>)! | G,,3 G,, G,,4 | z4 C,4 | [F,,C,]8 |] %53
V:7
 x2 | x8 | x8 | x8 | x8 | x8 | (G,,2 A,,2 B,,3) G,, | x8 | (G,,2 A,,2) B,,2 C,2 | x8 | x8 | x8 | %12
 x8 | x8 | x8 | x8 | x8 | x8 | x8 | x8 | B,,4 A,,4 | G,,4 F,,4 | (=E,,4 F,,4) | D,,3 D,, D,,4- | %24
[M:12/8] D,,12 | D,,2- D,, z z8 | x12 |[M:6/8] x6 |[M:12/8] x12 | x12 | x12 |[M:6/8] x6 | x6 | x6 | %34
 x6 | x6 | x6 | x6 | x6 | x6 | x6 | x6 |[M:12/8] x12 | x12 | x12 |[M:6/8] x6 | x6 | x6 | x6 | %49
[M:4/4] x8 | x8 | x8 | x8 |] %53

